X:33
T:33 Miss Molly's Jig
C:Welch MS
I:abc2nwc
M:2/4
L:1/16
K:G
d3Bc2A2|B3G G4|d2B2c2A2|B8|D3FA3c|B3G d4|A3GE3^c|d4d4:|
d2=f2e2d2|e2c2 c4|e2g2f2e2|f3d d4|e3c a4|d2B2 g4|e3cB3G|G4G4:|


